X: 1
T: Patricia Ann Douglas    (D for pipes)
C: Lindsay Ross
R: Jig
Z: Carl Allison
B: Joe Buchanan's Scottish Tome - Page 309.1
S: http://thisoldtractor.com/Patricia_Ann_Douglas.abc June 2017
I: 309 1
L: 1/8
M: 6/8
K: D
A |\
"D"d2d "A"cBA | "G"GAB "A"ABc | "D"d2d "Bm"a2f | "E7"fed "A7"e2A |\
"D"d2d "A"cBA | "G"GBd g3 | "Em"Bed "A7"cfe | "D"d3 d2 :|
f/g/ |\
"D"a2f Aaf | "A7"g2e Age | "D"fed "Bm"faf | "E7"fed "A7"efg |\
"D"a2f Aaf | "G"ged "A7"cBA | "Em"Bed "A7"cfe | "D"d3 d2 |]
f/g/ |\
"D"a2f Aaf | "A7"g2e Age | "D"def "G"gag | "E7"fed "A7"e2A |\
"D"d2d "A"cBA | "G"GBd g3 | "Em"Bed "A7"cfe | "D"d3 d2 |]
